X: 38792
T: Suaimhneas Intinne
R: barndance
M: 4/4
K: Bminor
||G2c2 c2d2|d2e2 e2ef|f2B2 B2BA|a4 g2gf|
c2d2 e2{e}f2|B4- B2G2|A2c2 d2e2|A8|
B2d2 B2G2|GAE2 d2dc|A8-|A8|
G2c2 c2d2|d2e2 e2ef|f2B2 B2z2|a4 g2gf|
c2d2 e2{e}f2|B4- B2G2|A2cA d2e2|A8|
B2d2 B2G2|GAE2 d2dc|A8-|A8||
F2A2 ABd2|d2B2- B2BA|F2A2 ABd2|d2B2 B2G2|
c2d2 e2ef|f2c2 c2GE|Bcd2 defe|g2gf e2ed|
c3B def2|B2B2 B3E|F2B2 d2ed|f2B2 G2A2|
e2f2 d2c2|A4- A2(3AGF|A8-|A8||

